!!!!SEGMENT: Vin1001d-Missa_Stabat_mater-Sanctus.krn
!!!id: Vin1001d
!!!AGN: Mass; Sanctus
!!!voices: 3-5
!!!COM: Jheronimus Vinders
!!!OPR: Missa Stabat mater
!!!OTL: Sanctus
**kern	**kern	**kern	**kern	**kern
*part5	*part4	*part3	*part2	*part1
*staff5	*staff4	*staff3	*staff2	*staff1
*I"Bassus	*I"Tenor	*I"Altus	*I"Superius II	*I"Superius I
*I'B	*I'T	*I'A	*I'S. II	*I'S. I
*clefF4	*clefGv2	*clefGv2	*clefG2	*clefG2
*k[b-]	*k[b-]	*k[b-]	*k[b-]	*k[b-]
*F:	*F:	*F:	*F:	*F:
*M2/1	*M2/1	*M2/1	*M2/1	*M2/1
*met(C|)	*met(C|)	*met(C|)	*met(C|)	*met(C|)
!!section: Sanctus
!!!OMD: Sanctus
=1	=1	=1	=1	=1
0r	1r	0c	0r	0r
.	[1c	.	.	.
=2	=2	=2	=2	=2
0c	1c]	1A	0r	1r
.	1A	1F	.	[1cc
=3	=3	=3	=3	=3
1A	1F	1r	0r	1cc]
1F	1c	2.f	.	1a
.	.	4e	.	.
=4	=4	=4	=4	=4
2.B-y	1d	4d	0r	1f
.	.	4c	.	.
.	.	1f	.	.
4A	.	.	.	.
1G	1B-y	.	.	1b-y
.	.	2e	.	.
=5	=5	=5	=5	=5
0F	1c	1f	0cc	2.a
.	.	.	.	4f
.	[1F	[1f	.	1f
=6	=6	=6	=6	=6
0r	1F]	2f]	1a	1.ff
.	.	2d	.	.
.	[1B-y	[1d	1f	.
.	.	.	.	2dd
=7	=7	=7	=7	=7
0G	2B-]	2d]	1.b-y	1dd
.	2G	2B-y	.	.
.	1G	1B-y	.	[1gg
.	.	.	2g	.
=8	=8	=8	=8	=8
1E	2r	0c	1g	1gg]
.	1G	.	.	.
1C	.	.	1cc	1ee
.	[2c	.	.	.
=9	=9	=9	=9	=9
2.F	4c]	1c	1a	1cc
.	4B-y	.	.	.
.	4A	.	.	.
4E	4G	.	.	.
1D	2A	1d	1f	[1ff
.	2F	.	.	.
=10	=10	=10	=10	=10
0C	0c	1G	0g	2ff]
.	.	.	.	4ee
.	.	.	.	4dd
.	.	[1g	.	1ee
=11	=11	=11	=11	=11
0c	0C	1g]	1e	1r
.	.	1e	1g	[1cc
=12	=12	=12	=12	=12
1A	1r	1c	0a	1cc]
1F	1c	2.f	.	1a
.	.	4e	.	.
=13	=13	=13	=13	=13
2.B-y	1d	4d	0r	1f
.	.	4c	.	.
.	.	1f	.	.
4A	.	.	.	.
1G	1B-y	.	.	1b-y
.	.	2e	.	.
=14	=14	=14	=14	=14
0F	[0c	0f	2.cc	2a
.	.	.	.	4f
.	.	.	4b-y	4g
.	.	.	1a	4a
.	.	.	.	4b-y
.	.	.	.	4cc
.	.	.	.	4dd
=15	=15	=15	=15	=15
[0C	0c_	2.e	0g	2ee
.	.	.	.	4cc
.	.	4f	.	4dd
.	.	2g	.	4ee
.	.	.	.	4ff
.	.	2c	.	[2gg
=16	=16	=16	=16	=16
0C]	0c]	2e	0cc	4gg]
.	.	.	.	4ff
.	.	2f	.	1ff
.	.	1g	.	.
.	.	.	.	2ee
=17	=17	=17	=17	=17
0r	2.F	0f	2.cc	2ff
.	.	.	.	4ee
.	4G	.	4b-y	4dd
.	2A	.	4a	2cc
.	.	.	4g	.
.	2B-y	.	[2f	[2dd
=18	=18	=18	=18	=18
0r	0A	0c	2f]	2dd]
.	.	.	4e	4cc
.	.	.	4d	4b-y
.	.	.	1e	1cc
=19	=19	=19	=19	=19
1r	0D	1.f	2r	2dd
.	.	.	1d	4cc
.	.	.	.	4b-y
2r	.	.	.	1a
[2D	.	2e	2d	.
=20	=20	=20	=20	=20
2D]	1r	1d	1f	2r
2D	.	.	.	1a
1F	2r	2c	1f	.
.	[2A	[2f	.	2a
=21	=21	=21	=21	=21
1F	2A]	2f]	1c	1cc
.	2A	2f	.	.
1C	1c	2e	4c	1cc
.	.	.	4d	.
.	.	[2c	4e	.
.	.	.	4f	.
=22	=22	=22	=22	=22
2r	1c	4c]	1g	1g
.	.	4d	.	.
2.C	.	4e	.	.
.	.	4f	.	.
.	1G	1g	2r	2r
4D	.	.	.	.
4E	.	.	2g	[2g
4F	.	.	.	.
=23	=23	=23	=23	=23
1G	2r	1g	1b-y	4g]
.	.	.	.	4a
.	2.G	.	.	4b-y
.	.	.	.	4cc
1G	.	2.d	1b-y	1dd
.	4A	.	.	.
.	4B-y	.	.	.
.	4c	4e	.	.
=24	=24	=24	=24	=24
1D	2d	4f	1a	1dd
.	.	4g	.	.
.	4c	1a	.	.
.	4B-y	.	.	.
1F	2A	.	1a	[1cc
.	[2c	4g	.	.
.	.	4f	.	.
=25	=25	=25	=25	=25
0C	2c]	2e	0g	1cc]
.	4B-y	1f	.	.
.	4A	.	.	.
.	1G	.	.	1r
.	.	2e	.	.
=26	=26	=26	=26	=26
0F	0F	[0f	1.a	1.cc
.	.	.	2f	2a
=27	=27	=27	=27	=27
2r	2r	0f_	2.f	2.a
1F	1c	.	.	.
.	.	.	4g	4b-y
.	.	.	2a	2cc
2BB-y	2B-y	.	[2b-y	[2dd
=28	=28	=28	=28	=28
1F	1c	0f_	4b-]	4dd]
.	.	.	4a	4cc
.	.	.	2a	2a
1BB-y	2d	.	2.f	1b-y
.	4c	.	.	.
.	4B-y	.	4g	.
=29	=29	=29	=29	=29
1.F	1A	0f]	0a	1cc
.	1r	.	.	[1ff
2E	.	.	.	.
=30	=30	=30	=30	=30
2D	1.f	1r	0r	2ff]
2C	.	.	.	2ee
[1BB-y	.	[1f	.	2dd
.	2e	.	.	2cc
=31	=31	=31	=31	=31
1BB-]	2d	2f]	0r	2b-y
.	2c	2e	.	2a
1BB-y	2B-y	1d	.	2g
.	2A	.	.	2f
=32	=32	=32	=32	=32
2C	2G	2c	0r	2e
2D	2F	2B-y	.	1f
1C	1G	1c	.	.
.	.	.	.	2e
=33	=33	=33	=33	=33
1r	[0F	[0A	1.cc	[0f
[1c	.	.	.	.
.	.	.	2b-y	.
=34	=34	=34	=34	=34
2c]	0F]	0A]	2a	0f]
2B-y	.	.	2g	.
2A	.	.	2f	.
2G	.	.	2e	.
=35	=35	=35	=35	=35
2F	1r	0r	2d	0ff
2E	.	.	1c	.
1D	1F	.	.	.
.	.	.	2BnXi	.
=36	=36	=36	=36	=36
2.C	2G	2r	1c	1.ee
.	2A	2.c	.	.
4D	.	.	.	.
2E	2G	.	2r	.
.	.	4B-y	.	.
[2F	[2A	4A	[2cc	2cc
.	.	4G	.	.
=37	=37	=37	=37	=37
2F]	2A]	2F	4cc]	1cc
.	.	.	4b-y	.
2F	2F	2.c	2a	.
2E	2G	.	2g	2r
.	.	4B-y	.	.
[2F	2F	4A	[2a	[2cc
.	.	4G	.	.
=38	=38	=38	=38	=38
1F]	1A	2F	4a]	2cc]
.	.	.	4g	.
.	.	1A	4f	2.dd
.	.	.	4e	.
1G	1B-y	.	2.d	.
.	.	.	.	4cc
.	.	2G	.	2b-y
.	.	.	4e	.
=39	=39	=39	=39	=39
1D	1F	1d	0f	0a
1F	1A	2c	.	.
.	.	[2f	.	.
=40	=40	=40	=40	=40
[0Cl	[0Gl	2f]	[0gl	[0ccl
.	.	4e	.	.
.	.	4d	.	.
.	.	1e	.	.
=41	=41	=41	=41	=41
00C]	00G]	00e	00g]	00cc]
=42||	=42||	=42||	=42||	=42||
*	*M2/1	*	*M2/1	*M2/1
*	*met(C|)	*	*met(C|)	*met(C|)
!!section: Pleni sunt
!!!OMD: Pleni sunt
0r	0r	0r	1f	1r
.	.	.	[1a	1f
=43	=43	=43	=43	=43
0r	0r	0r	2a]	1.a
.	.	.	2b-y	.
.	.	.	1cc	.
.	.	.	.	2b-y
=44	=44	=44	=44	=44
0r	0r	0r	1f	1cc
.	.	.	[1cc	1f
=45	=45	=45	=45	=45
0r	1F	0r	2cc]	1.cc
.	.	.	2b-y	.
.	[1A	.	2a	.
.	.	.	2g	2b-y
=46	=46	=46	=46	=46
0r	2A]	0r	1f	1a
.	2B-y	.	.	.
.	1c	.	1e	1g
=47	=47	=47	=47	=47
0r	0F	0r	2r	2r
.	.	.	2a	2cc
.	.	.	2a	2cc
.	.	.	2a	2cc
=48	=48	=48	=48	=48
0r	0r	0r	1b-y	1dd
.	.	.	2a	2cc
.	.	.	[2g	[2b-y
=49	=49	=49	=49	=49
0r	2r	0r	2g]	2b-]
.	2F	.	2f	2a
.	2c	.	4e	2g
.	.	.	4d	.
.	2c	.	2e	2ee
=50	=50	=50	=50	=50
0r	1d	0r	2d	1ff
.	.	.	1a	.
.	2c	.	.	2ee
.	[2B-y	.	[2g	[2dd
=51	=51	=51	=51	=51
0r	2B-]	0r	2g]	2dd]
.	2A	.	2f	2cc
.	2G	.	1g	1b-y
.	2e	.	.	.
=52	=52	=52	=52	=52
0r	1f	0r	1d	2.a
.	.	.	.	4f
.	2e	.	1r	4g
.	.	.	.	4a
.	[2d	.	.	[2b-y
=53	=53	=53	=53	=53
0r	4d]	0r	1r	4b-]
.	4c	.	.	4a
.	4A	.	.	4f
.	4c	.	.	2a
.	1B-y	.	1dd	.
.	.	.	.	8gL
.	.	.	.	8fJ
.	.	.	.	2g
=54	=54	=54	=54	=54
0r	2A	0r	2.cc	1a
.	1f	.	.	.
.	.	.	4b-y	.
.	.	.	2a	1r
.	2e	.	2g	.
=55	=55	=55	=55	=55
0r	2d	0r	2f	1r
.	2c	.	2e	.
.	1B-y	.	2d	1dd
.	.	.	2d	.
=56	=56	=56	=56	=56
0r	2A	0r	1a	2.cc
.	1f	.	.	.
.	.	.	.	4b-y
.	.	.	1r	2a
.	2e	.	.	2g
=57	=57	=57	=57	=57
0r	1d	0r	1ff	2f
.	.	.	.	2f
.	2.c	.	2.ee	1cc
.	4B-y	.	4dd	.
=58	=58	=58	=58	=58
0r	2A	0r	2cc	0r
.	2G	.	2b-y	.
.	2F	.	2a	.
.	2E	.	2g	.
=59	=59	=59	=59	=59
0r	1D	0r	2f	1ff
.	.	.	2f	.
.	2C	.	1cc	2.ee
.	2c	.	.	.
.	.	.	.	4dd
=60	=60	=60	=60	=60
0r	1.f	0r	0r	2cc
.	.	.	.	2b-y
.	.	.	.	2a
.	2e	.	.	2g
=61	=61	=61	=61	=61
0r	1d	0r	1ff	2f
.	.	.	.	2f
.	1c	.	2.ee	2.cc
.	.	.	4dd	4dd
=62	=62	=62	=62	=62
0r	2r	0r	2cc	2ee
.	2c	.	2b-y	1ff
.	2c	.	2a	.
.	2c	.	2g	2ee
=63	=63	=63	=63	=63
0r	1d	0r	1f	1ff
.	1f	.	1r	[1cc
=64	=64	=64	=64	=64
0r	[0c	0r	1.cc	2cc]
.	.	.	.	2b-y
.	.	.	.	2a
.	.	.	2b-y	[2g
=65	=65	=65	=65	=65
0r	0c]	0r	1a	2g]
.	.	.	.	1f
.	.	.	1g	.
.	.	.	.	2e
=66	=66	=66	=66	=66
0r	[0F	0r	0f	1f
.	.	.	.	1cc
=67	=67	=67	=67	=67
0r	0F_	0r	1r	2dd
.	.	.	.	2.cc
.	.	.	1cc	.
.	.	.	.	4b-y
.	.	.	.	4a
.	.	.	.	4g
=68	=68	=68	=68	=68
0r	0F_	0r	2dd	2f
.	.	.	2.cc	2f
.	.	.	.	2.a
.	.	.	4b-y	.
.	.	.	4a	.
.	.	.	4g	4b-y
=69	=69	=69	=69	=69
0r	0F]	0r	2f	1cc
.	.	.	2f	.
.	.	.	2.a	2f
.	.	.	.	[2ff
.	.	.	4b-y	.
=70	=70	=70	=70	=70
0r	2r	0r	1cc	2ff]
.	2c	.	.	2ee
.	2d	.	2f	4ff
.	.	.	.	4dd
.	[2c	.	2g	[2ee
=71	=71	=71	=71	=71
0r	4c]	0r	1e	4ee]
.	4B-y	.	.	4dd
.	4A	.	.	4cc
.	4G	.	.	4b-y
.	2F	.	2f	2a
.	2F	.	[2a	[2cc
=72	=72	=72	=72	=72
0r	2.A	0r	4a]	2cc]
.	.	.	4g	.
.	.	.	1f	4b-y
.	4B-y	.	.	4a
.	1c	.	.	1g
.	.	.	2e	.
=73	=73	=73	=73	=73
0r	1F	0r	1f	2a
.	.	.	.	2cc
.	2r	.	2r	2dd
.	2c	.	2g	2ee
=74	=74	=74	=74	=74
0r	2f	0r	2a	2cc
.	2f	.	2a	2cc
.	2d	.	2a	2ff
.	2d	.	2a	2ff
=75	=75	=75	=75	=75
0r	2.g	0r	1b-y	2dd
.	.	.	.	2dd
.	4f	.	.	.
.	4e	.	1cc	2.gg
.	4d	.	.	.
.	2c	.	.	.
.	.	.	.	4ff
=76	=76	=76	=76	=76
0r	2r	0r	2g	4ee
.	.	.	.	4dd
.	2c	.	2g	2ee
.	2f	.	2a	2cc
.	2f	.	2a	2ff
=77	=77	=77	=77	=77
0r	2d	0r	2a	2ff
.	2d	.	2a	2dd
.	2.g	.	1b-y	2dd
.	.	.	.	[2gg
.	4f	.	.	.
=78	=78	=78	=78	=78
0r	4e	0r	1cc	4gg]
.	4d	.	.	4ff
.	2c	.	.	4ee
.	.	.	.	4dd
.	2r	.	[1g	1ee
.	4c	.	.	.
.	4d	.	.	.
=79	=79	=79	=79	=79
0r	4e	0r	1g]	2r
.	4f	.	.	.
.	2g	.	.	2ee
.	2f	.	1r	2dd
.	[2g	.	.	[2ee
=80	=80	=80	=80	=80
0r	4g]	0r	0r	4ee]
.	4f	.	.	4dd
.	2e	.	.	1cc
.	2.d	.	.	.
.	.	.	.	2bnXi
.	8cL	.	.	.
.	8B-yJ	.	.	.
=81	=81	=81	=81	=81
0r	2A	0r	2r	1cc
.	2c	.	2a	.
.	2B-y	.	2g	1r
.	[2c	.	[2a	.
=82	=82	=82	=82	=82
0r	4c]	0r	4a]	0r
.	4B-y	.	4g	.
.	2A	.	1f	.
.	1G	.	.	.
.	.	.	2e	.
=83	=83	=83	=83	=83
0r	1F	0r	2f	2r
.	.	.	2a	2cc
.	2r	.	2g	2b-y
.	2F	.	[2a	[2cc
=84	=84	=84	=84	=84
0r	2A	0r	4a]	2cc]
.	.	.	4g	.
.	2B-y	.	1f	4b-y
.	.	.	.	4a
.	1c	.	.	1g
.	.	.	2e	.
=85	=85	=85	=85	=85
00r	00F	00r	00f	00a
=86||	=86||	=86||	=86||	=86||
*M3/1	*M3/1	*M3/1	*M3/1	*M3/1
*met(O/3)	*met(O/3)	*met(O/3)	*met(O/3)	*met(C|rev)
*	*	*	*	*rscale:2
!!section: Osanna
!!!OMD: Osanna
0C	0c	0.r	0.r	0.r
1D	1A	.	.	.
=87	=87	=87	=87	=87
0F	1F	0.r	0.r	0.r
.	0B-y	.	.	.
1E	.	.	.	.
=88	=88	=88	=88	=88
[0.F	1.A	0c	0cc	0.r
.	2F	.	.	.
.	1F	1d	1a	.
=89	=89	=89	=89	=89
1F]	0c	0f	1f	0.r
0G	.	.	0b-y	.
.	1B-y	1e	.	.
=90	=90	=90	=90	=90
0F	1c	[0.f	1.a	0cc
.	1A	.	.	.
.	.	.	2f	.
[1D	[1d	.	2f	1dd
.	.	.	2g	.
=91	=91	=91	=91	=91
1D]	1d]	1f]	2a	0ff
.	.	.	2b-y	.
0C	0G	0g	0cc	.
.	.	.	.	1ee
=92	=92	=92	=92	=92
1F	1.A	1f	1.cc	1ff
1r	.	1c	.	1.ee
.	2G	.	2b-y	.
1r	1F	[1f	[1a	.
.	.	.	.	2dd
=93	=93	=93	=93	=93
0.r	1D	1f]	0.a]	0dd
.	0A	0e	.	.
.	.	.	.	1cc
=94	=94	=94	=94	=94
1r	1D	1d	[0.a	1dd
0A	1r	1c	.	1.ee
.	1r	1e	.	.
.	.	.	.	2cc
=95	=95	=95	=95	=95
1F	1A	1f	1a]	0cc
0G	0B-y	0d	1r	.
.	.	.	1g	1bnXi
=96	=96	=96	=96	=96
1C	1G	[0.c	1g	0.cc
1c	0F	.	1c	.
1c	.	.	1r	.
=97	=97	=97	=97	=97
[0.F	1c	1c]	0.r	1r
.	1c	0F	.	1r
.	[1F	.	.	1cc
=98	=98	=98	=98	=98
1F]	1F]	0A	1cc	1cc
1r	1c	.	1cc	1f
1BB-y	1d	[1B-y	1f	1r
=99	=99	=99	=99	=99
0BB-y	1.d	0.B-]	0f	1.ff
.	2c	.	.	2ee
1BB-y	1B-y	.	1g	1dd
=100	=100	=100	=100	=100
0F	0.A	0c	1.a	0cc
.	.	.	2b-y	.
1F	.	[1A	1cc	1cc
=101	=101	=101	=101	=101
0F	[0.F	0.A]	1.f	1.a
.	.	.	2g	2b-y
1F	.	.	1a	1cc
=102	=102	=102	=102	=102
1BB-y	0.F]	1B-y	1d	1dd
1.F	.	1A	0a	1cc
.	.	[1F	.	[1ff
2E	.	.	.	.
=103	=103	=103	=103	=103
1D	1r	1F]	1b-y	1ff]
1C	1r	1G	1.cc	1ee
[1F	[1A	1F	.	[1cc
.	.	.	2b-y	.
=104	=104	=104	=104	=104
1F]	1A]	0c	1a	2cc]
.	.	.	.	2dd
1C	1c	.	0g	2ee
.	.	.	.	2ff
1E	1G	1B-y	.	1gg
=105	=105	=105	=105	=105
1F	1A	1A	0.cc	0ff
0C	0c	0G	.	.
.	.	.	.	1ee
=106	=106	=106	=106	=106
1F	1c	[0.F	0a	0ff
1.A	1F	.	.	.
.	[1A	.	1r	1f
2B-y	.	.	.	.
=107	=107	=107	=107	=107
1c	2A]	0.F]	1f	1.a
.	2B-y	.	.	.
0F	1c	.	1.a	.
.	.	.	.	2b-y
.	2F	.	.	1cc
.	2G	.	2b-y	.
=108	=108	=108	=108	=108
0F	2A	0.f	1cc	2f
.	2B-y	.	.	2g
.	1c	.	1f	2a
.	.	.	.	2b-y
1F	1F	.	1a	2cc
.	.	.	.	2dd
=109	=109	=109	=109	=109
0C	0G	1e	0g	0ee
.	.	0c	.	.
1F	1F	.	1a	1r
=110	=110	=110	=110	=110
2BB-y	0F	1.d	1.b-y	0ff
2C	.	.	.	.
2D	.	.	.	.
2E	.	2c	2a	.
1F	1F	1A	1f	1ff
=111	=111	=111	=111	=111
0C	0c	1G	0g	0ee
.	.	1c	.	.
1c	1r	1e	1a	1cc
=112	=112	=112	=112	=112
1B-y	1G	1d	1b-y	1dd
0A	0c	0c	1cc	1ee
.	.	.	1f	1a
=113	=113	=113	=113	=113
1G	1d	1B-y	1g	1b-y
0F	1f	0A	0a	1cc
.	[1c	.	.	1f
=114	=114	=114	=114	=114
1E	1c]	1G	1r	1g
1F	1A	0c	0f	0a
1A	1c	.	.	.
=115	=115	=115	=115	=115
1G	1B-y	1d	1.g	1b-y
1C	1G	1e	.	1cc
.	.	.	2a	.
1D	1r	1f	1b-y	1ff
=116	=116	=116	=116	=116
0C	0G	[0.g	1.cc	1ee
.	.	.	.	1r
.	.	.	2b-y	.
1C	1c	.	2g	1ee
.	.	.	2a	.
=117	=117	=117	=117	=117
1G	1B-y	0.g_	1b-y	1dd
1.C	1c	.	1g	1.ee
.	[1e	.	1r	.
2D	.	.	.	2dd
=118	=118	=118	=118	=118
2E	1e]	0.g]	1.g	0cc
2F	.	.	.	.
0G	0d	.	.	.
.	.	.	2f	.
.	.	.	1d	1bnXi
=119	=119	=119	=119	=119
1C	0c	[0.gl	0e	0cc
1r	.	.	.	.
1C	1c	.	[1g	1ee
=120	=120	=120	=120	=120
1G	1B-y	0.g_	2g]	1dd
.	.	.	2f	.
1.C	1c	.	2e	1.ee
.	.	.	2d	.
.	[1e	.	1c	.
2D	.	.	.	2dd
=121	=121	=121	=121	=121
2E	1e]	0.g_	1.g	0cc
2F	.	.	.	.
0G	0d	.	.	.
.	.	.	2f	.
.	.	.	1d	1bnXi
=122	=122	=122	=122	=122
00C	00c	00g]	00el	00cc
=123||	=123||	=123||	=123||	=123||
*M2/1	*M2/1	*	*	*M2/1
*met(C|)	*met(C|)	*	*	*met(C|)
*	*	*	*	*rscale:1
!!section: Benedictus
!!!OMD: Benedictus
0r	1c	0r	0r	0r
.	2d	.	.	.
.	[2f	.	.	.
=124	=124	=124	=124	=124
0r	2f]	0r	0r	1r
.	4e	.	.	.
.	4d	.	.	.
.	1e	.	.	1cc
=125	=125	=125	=125	=125
0r	0d	0r	0r	2dd
.	.	.	.	1ff
.	.	.	.	4ee
.	.	.	.	4dd
=126	=126	=126	=126	=126
1C	2r	0r	0r	1ee
.	2c	.	.	.
2D	2f	.	.	2dd
[2F	4e	.	.	4cc
.	4d	.	.	4b-y
=127	=127	=127	=127	=127
2F]	2c	0r	0r	1a
4E	1d	.	.	.
4D	.	.	.	.
1E	.	.	.	2r
.	2c#i	.	.	2ee
=128	=128	=128	=128	=128
2D	[0d	0r	0r	2.ff
4d	.	.	.	.
4c	.	.	.	4ee
4B-y	.	.	.	4dd
4A	.	.	.	4cc
[2B-y	.	.	.	[2dd
=129	=129	=129	=129	=129
4B-]	1d]	0r	0r	4dd]
4A	.	.	.	4cc
4G	.	.	.	4b-y
4F	.	.	.	4a
1G	2r	.	.	1b-y
.	2e	.	.	.
=130	=130	=130	=130	=130
1D	2.f	0r	0r	2.a
.	4e	.	.	4g
2r	4d	.	.	2a
.	4c	.	.	.
[2BB-y	[2d	.	.	[2b-y
=131	=131	=131	=131	=131
2BB-]	4d]	0r	0r	4b-]
.	4c	.	.	4a
2C	4B-y	.	.	1a
.	4A	.	.	.
2D	1B-y	.	.	.
2E	.	.	.	2g
=132	=132	=132	=132	=132
2.F	2A	0r	0r	0a
.	1F	.	.	.
4G	.	.	.	.
2A	.	.	.	.
2B-y	2G	.	.	.
=133	=133	=133	=133	=133
2c	2A	0r	0r	1r
2d	2B-y	.	.	.
2.A	2.c	.	.	2r
.	.	.	.	[2cc
4B-y	4d	.	.	.
=134	=134	=134	=134	=134
2c	2e	0r	0r	2cc]
2B-y	2f	.	.	2dd
2A	2c	.	.	2ee
2F	2f	.	.	2ff
=135	=135	=135	=135	=135
2c	2e	0r	0r	2gg
2d	2f	.	.	1ff
1c	1g	.	.	.
.	.	.	.	2ee
=136	=136	=136	=136	=136
1F	[0f	0r	0r	1ff
2r	.	.	.	2r
2B-y	.	.	.	2dd
=137	=137	=137	=137	=137
2A	0f]	0r	0r	2cc
1B-y	.	.	.	1dd
4A	.	.	.	4cc
4G	.	.	.	4b-y
=138	=138	=138	=138	=138
2F	2r	0r	0r	[0a
2d	2f	.	.	.
2c	2e	.	.	.
[2d	[2f	.	.	.
=139	=139	=139	=139	=139
2d]	2f]	0r	0r	0a]
4c	4e	.	.	.
4B-y	4d	.	.	.
2A	2c	.	.	.
[2D	[2d	.	.	.
=140	=140	=140	=140	=140
4D]	2d]	0r	0r	2r
4C	.	.	.	.
4D	4c	.	.	2dd
4E	4B-y	.	.	.
2F	2A	.	.	2cc
[2BB-y	[2B-y	.	.	[2dd
=141	=141	=141	=141	=141
4BB-]	2B-]	0r	0r	2dd]
4AA	.	.	.	.
4BB-y	4A	.	.	4cc
4C	4G	.	.	4b-y
2D	2F	.	.	2a
[2G	[2B-y	.	.	[2b-y
=142	=142	=142	=142	=142
2G]	2B-]	0r	0r	2b-]
2A	2c	.	.	4a
.	.	.	.	4g
2.B-y	2.d	.	.	2.f
8AL	4e	.	.	4g
8GJ	.	.	.	.
=143	=143	=143	=143	=143
4F	2f	0r	0r	4a
4G	.	.	.	4b-y
4A	4F	.	.	2.cc
4B-y	4G	.	.	.
2c	4A	.	.	.
.	4B-y	.	.	4b-y
2F	[2c	.	.	2a
=144	=144	=144	=144	=144
2E	4c]	0r	0r	2g
.	4B-y	.	.	.
2F	2A	.	.	1f
2C	1G	.	.	.
2C	.	.	.	2e
=145	=145	=145	=145	=145
1D	1F	0r	0r	0f
[1F	2r	.	.	.
.	2c	.	.	.
=146	=146	=146	=146	=146
2F]	1d	0r	0r	1r
2F	.	.	.	.
2.F	[1f	.	.	1cc
4E	.	.	.	.
=147	=147	=147	=147	=147
4D	2f]	0r	0r	1dd
4C	.	.	.	.
1D	2f	.	.	.
.	2f	.	.	[1ff
4C	4e	.	.	.
4BB-y	4d	.	.	.
=148	=148	=148	=148	=148
2AA	2c	0r	0r	2ff]
2.BB-y	1d	.	.	2ff
.	.	.	.	2ff
4C	.	.	.	.
4D	4c	.	.	4ee
4E	4B-y	.	.	4dd
=149	=149	=149	=149	=149
2F	2A	0r	0r	2cc
2.BB-y	1B-y	.	.	1dd
4C	.	.	.	.
4D	4A	.	.	4cc
4E	4G	.	.	4b-y
=150	=150	=150	=150	=150
[0F	2c	0r	0r	1a
.	2F	.	.	.
.	2c	.	.	2r
.	2d	.	.	2f
=151	=151	=151	=151	=151
0F]	2c	0r	0r	2cc
.	2.f	.	.	2dd
.	.	.	.	2cc
.	4e	.	.	.
.	2d	.	.	[2ff
=152	=152	=152	=152	=152
0r	2c	0r	0r	4ff]
.	.	.	.	4ee
.	2f	.	.	2dd
.	4e	.	.	2cc
.	4c	.	.	.
.	2d	.	.	2ff
=153	=153	=153	=153	=153
0r	2.c	0r	0r	4ee
.	.	.	.	4dd
.	.	.	.	1ee
.	4d	.	.	.
.	4e	.	.	.
.	4f	.	.	.
.	[2g	.	.	4dd
.	.	.	.	4cc
=154	=154	=154	=154	=154
1G	2g]	0r	0r	2bnXi
.	4f	.	.	1cc
.	4e	.	.	.
2G	1d	.	.	.
2G	.	.	.	2bni
=155	=155	=155	=155	=155
2.A	2r	0r	0r	0cc
.	2c	.	.	.
4B-y	.	.	.	.
2c	2c	.	.	.
2A	2c	.	.	.
=156	=156	=156	=156	=156
2B-y	2.d	0r	0r	2r
1d	.	.	.	1ff
.	4e	.	.	.
.	2f	.	.	.
2c	[2g	.	.	2ee
=157	=157	=157	=157	=157
2B-y	2g]	0r	0r	2dd
2A	1f	.	.	2cc
1G	.	.	.	2b-y
.	2e	.	.	2b-y
=158	=158	=158	=158	=158
1d	1f	0r	0r	[0a
2r	2r	.	.	.
2d	2f	.	.	.
=159	=159	=159	=159	=159
2c	2e	0r	0r	0a_
2d	2f	.	.	.
2A	2e	.	.	.
2d	2f	.	.	.
=160	=160	=160	=160	=160
2c	2e	0r	0r	0a_
1d	1f	.	.	.
4c	4e	.	.	.
4B-y	4d	.	.	.
=161	=161	=161	=161	=161
1A	1c	0r	0r	1a]
2r	2r	.	.	2r
2D	2A	.	.	2f 2ff>
=162	=162	=162	=162	=162
2C	2c	0r	0r	2e 2ee>
2D	2F	.	.	2f 2ff>
2AA	2c	.	.	2e 2ee>
2D	2F	.	.	2f 2ff>
=163	=163	=163	=163	=163
2C	2c	0r	0r	2e 2ee>
1D	2.F	.	.	1f 1ff>
.	4G	.	.	.
4C	4A	.	.	4e 4ee>
4BB-y	4B-y	.	.	4d 4dd>
=164	=164	=164	=164	=164
1AA	[0cl	0r	0r	1e 1ee>
2r	.	.	.	2r
2F	.	.	.	2a
=165	=165	=165	=165	=165
2E	0c_	0r	0r	2g
2F	.	.	.	2a
2C	.	.	.	2g
2F	.	.	.	2a
=166	=166	=166	=166	=166
2E	0c_	0r	0r	2g
1F	.	.	.	1a
4E	.	.	.	4g
4D	.	.	.	4f
=167	=167	=167	=167	=167
00Cl	00c]	00r	00r	00el
==	==	==	==	==
*-	*-	*-	*-	*-
!!!system-decoration: [*]
!!!RDF**kern: i = editorial accidental
!!!RDF**kern: l = terminal long
!!!ENC: Benjamin Ory
!!!END: 2024/9/19
!!!EED: Benjamin Ory
!!!EEV: 2024/09/19
!!!YEC: Copyright 2024 Benjamin Ory, All Rights Reserved
!!!ONB: Translated from MusicXML on 2024/09/19